svg/fluentui-system-icons/ic_fluent_image_multiple_28_filled.svg

<svg width="28" height="28" viewBox="0 0 28 28" fill="none" xmlns="http://www.w3.org/2000/svg">
<path d="M22.9932 6.00782C23.8988 6.58285 24.5 7.59621 24.5 8.75V19.25C24.5 22.1495 22.1495 24.5 19.25 24.5H8.75C7.59621 24.5 6.58285 23.8988 6.00612 22.9925L6.12828 22.9982L6.25 23H19.25C21.3211 23 23 21.3211 23 19.25V6.25C23 6.16872 22.9977 6.08798 22.9932 6.00782ZM12.9318 14.1482L13.0252 14.2262L20.4531 21.5186C19.9578 21.8239 19.3745 22 18.75 22H6.25C5.62551 22 5.04216 21.8239 4.54692 21.5186L11.9744 14.2262L12.058 14.1552C12.2848 13.9895 12.5835 13.967 12.8298 14.0877L12.9318 14.1482ZM18.75 3C20.5449 3 22 4.45507 22 6.25V18.75C22 19.3771 21.8224 19.9626 21.5148 20.4592L14.0761 13.1558L13.9476 13.0389C13.1148 12.3375 11.8939 12.3356 11.059 13.0331L10.9235 13.1558L3.4852 20.4592C3.17758 19.9626 3 19.3771 3 18.75V6.25C3 4.45507 4.45507 3 6.25 3H18.75ZM16.4993 7.25C15.8093 7.25 15.25 7.80933 15.25 8.49929C15.25 9.18925 15.8093 9.74858 16.4993 9.74858C17.1893 9.74858 17.7486 9.18925 17.7486 8.49929C17.7486 7.80933 17.1893 7.25 16.4993 7.25Z" fill="#212121"/>
</svg>

<svg xmlns="http://www.w3.org/2000/svg" width="28" height="28"><path d="M22.993 6.008A3.243 3.243 0 0 1 24.5 8.75v10.5c0 2.9-2.35 5.25-5.25 5.25H8.75a3.247 3.247 0 0 1-2.744-1.508l.122.006.122.002h13A3.75 3.75 0 0 0 23 19.25v-13a4.32 4.32 0 0 0-.007-.242Zm-10.061 8.14.093.078 7.428 7.293A3.235 3.235 0 0 1 18.75 22H6.25a3.235 3.235 0 0 1-1.703-.481l7.427-7.293.084-.07a.75.75 0 0 1 .772-.068l.102.06ZM18.75 3A3.25 3.25 0 0 1 22 6.25v12.5c0 .627-.178 1.213-.485 1.71l-7.439-7.304-.128-.117a2.25 2.25 0 0 0-2.889-.006l-.135.123-7.439 7.303A3.235 3.235 0 0 1 3 18.75V6.25A3.25 3.25 0 0 1 6.25 3h12.5ZM16.5 7.25a1.25 1.25 0 1 0 0 2.499 1.25 1.25 0 0 0 0-2.499Z"/></svg>
